tools/download-figma-icons/icons/solid/power-plug.svg

<svg width="24" height="24" viewBox="0 0 24 24" fill="none" xmlns="http://www.w3.org/2000/svg">
<path fill-rule="evenodd" clip-rule="evenodd" d="M11.9919 16.9945C11.5795 16.9945 11.242 16.6571 11.242 16.2446C11.242 15.8321 11.5795 15.4946 11.9919 15.4946C12.4052 15.4946 12.7419 15.8321 12.7419 16.2446C12.7419 16.6571 12.4052 16.9945 11.9919 16.9945ZM12.0004 0C5.37807 0 0.0007324 5.37809 0.0007324 11.9996C0.0007324 15.0295 1.1332 17.9245 3.19564 20.1519C3.47313 20.4519 3.94561 20.4751 4.2531 20.1901C4.55984 19.9126 4.57484 19.4319 4.28985 19.1327C2.48991 17.182 1.50069 14.6546 1.50069 11.9996C1.50069 6.20981 6.20979 1.49995 12.0004 1.49995C17.7894 1.49995 22.5 6.20981 22.5 11.9996C22.5 16.207 20.0026 19.9944 16.1327 21.6518L16.1252 21.6601V21.6518C15.8177 21.7943 15.487 21.8618 15.1578 21.8618C14.0628 21.8618 13.1396 21.1194 12.8478 20.1219C15.1195 19.7169 16.852 17.7295 16.852 15.3445V13.7396H17.5269C17.9469 13.7396 18.2769 13.4103 18.2769 12.9896V9.6747C18.2769 9.26222 17.9469 8.92473 17.5269 8.92473H15.697V4.8831C15.697 4.46986 15.3595 4.13312 14.947 4.13312C14.5353 4.13312 14.197 4.46986 14.197 4.8831V8.92473H9.79468V4.8831C9.79468 4.46986 9.46469 4.13312 9.04471 4.13312C8.63297 4.13312 8.29473 4.46986 8.29473 4.8831V8.92473H6.46479C6.0523 8.92473 5.71481 9.26222 5.71481 9.6747V12.9896C5.71481 13.4103 6.0523 13.7396 6.46479 13.7396H7.14726V15.3445C7.14726 17.7902 8.96221 19.8069 11.3096 20.1444C11.6396 21.9751 13.2371 23.3618 15.1578 23.3618C15.6903 23.3618 16.2145 23.2493 16.7177 23.0318H16.7252L16.732 23.0243C18.9377 22.0726 20.7593 20.5194 22.0193 18.6002C23.2875 16.6795 24 14.3996 24 11.9996C24 5.37809 18.6144 0 12.0004 0Z" fill="black"/>
</svg>

<svg xmlns="http://www.w3.org/2000/svg" width="24" height="24" fill="none" viewBox="0 0 24 24"><path fill="currentColor" fill-rule="evenodd" d="M11.992 16.995a.75.75 0 0 1-.75-.75c0-.413.337-.75.75-.75s.75.337.75.75c0 .412-.337.75-.75.75M12 0C5.378 0 0 5.378 0 12c0 3.03 1.133 5.924 3.196 8.152.277.3.75.323 1.057.038a.74.74 0 0 0 .037-1.057A10.48 10.48 0 0 1 1.5 12C1.5 6.21 6.21 1.5 12 1.5S22.5 6.21 22.5 12c0 4.207-2.497 7.994-6.367 9.652l-.008.008v-.008c-.307.142-.638.21-.967.21a2.42 2.42 0 0 1-2.31-1.74 4.864 4.864 0 0 0 4.004-4.777V13.74h.675c.42 0 .75-.33.75-.75V9.675c0-.413-.33-.75-.75-.75h-1.83V4.883a.75.75 0 0 0-.75-.75.75.75 0 0 0-.75.75v4.042H9.795V4.883c0-.413-.33-.75-.75-.75a.75.75 0 0 0-.75.75v4.042h-1.83a.75.75 0 0 0-.75.75v3.315c0 .42.337.75.75.75h.682v1.604a4.856 4.856 0 0 0 4.163 4.8 3.91 3.91 0 0 0 3.848 3.218c.532 0 1.057-.113 1.56-.33h.007l.007-.008a12 12 0 0 0 5.287-4.424A11.95 11.95 0 0 0 24 12c0-6.622-5.386-12-12-12" clip-rule="evenodd"/></svg>
